svg/emoji_u1fad5.svg

<?xml version="1.0" encoding="utf-8"?>
<!-- Generator: Adobe Illustrator 24.0.3, SVG Export Plug-In . SVG Version: 6.00 Build 0)  -->
<svg version="1.1" id="Layer_4" xmlns="http://www.w3.org/2000/svg" xmlns:xlink="http://www.w3.org/1999/xlink" x="0" y="0"
	 viewBox="0 0 128 128" style="enable-background:new 0 0 128 128;" xml:space="preserve">
<g>
	
		<radialGradient id="SVGID_1_" cx="33.7742" cy="46.0214" r="25.5354" gradientTransform="matrix(1 0 0 0.7219 0 12.7971)" gradientUnits="userSpaceOnUse">
		<stop  offset="0.3008" style="stop-color:#BD3D15"/>
		<stop  offset="0.6607" style="stop-color:#E64A19"/>
	</radialGradient>
	<path style="fill:url(#SVGID_1_);" d="M26.63,37.48c-4.7-1.03-10.31-1.65-15.31-2.24c-4.82-0.57-7.05,1.97-7.05,6.39
		c0,3.6,1.5,6.17,2.45,7.45c0.43,0.58,1.07,0.96,1.79,1.07c2.35,0.38,7.04,0.86,11.8,0.86c5.67,0,11.84-1.66,17.02-2.4
		c1.88-0.27,2.06,2.02,1.91,0.26C38.74,42.83,31.73,38.6,26.63,37.48z"/>
	<linearGradient id="SVGID_2_" gradientUnits="userSpaceOnUse" x1="21.8185" y1="42.9818" x2="22.2278" y2="29.4266">
		<stop  offset="0.1156" style="stop-color:#FFE082;stop-opacity:0"/>
		<stop  offset="0.6882" style="stop-color:#FFE082"/>
	</linearGradient>
	<path style="fill:url(#SVGID_2_);" d="M26.63,37.48c-4.7-1.03-10.31-1.65-15.31-2.24c-4.82-0.57-7.05,1.97-7.05,6.39
		c0,3.6,34.98,7.23,34.98,7.23C38.74,42.83,31.73,38.6,26.63,37.48z"/>
	<g>
		<g>
			
				<radialGradient id="SVGID_3_" cx="75.012" cy="100.1328" r="15.6377" gradientTransform="matrix(1 0 0 1.432 0 -43.2605)" gradientUnits="userSpaceOnUse">
				<stop  offset="0" style="stop-color:#FFE082"/>
				<stop  offset="1" style="stop-color:#616161"/>
			</radialGradient>
			<path style="fill:url(#SVGID_3_);" d="M68.19,106.21c-0.1,0.05-0.19,0.11-0.29,0.16c0.21-9.91,3.31-19.83,9.69-27.3
				c-1.17,1.37-8.25-1.4-9.54,0c-12.38,13.45-9.85,32.55-8.75,38.19c0.18,0.95,1,1.64,1.97,1.65c1.86,0.02,4.89,0,6.62-0.01
				c0.75-0.01,1.41-0.51,1.59-1.25c1.09-4.42,3.14-9.35,7.28-11.45C74.51,107.35,70.48,105.04,68.19,106.21z"/>
			<g>
				<g>
					<g>
						<g>
							<path style="fill:#616161;" d="M63.86,106.37c-10.11,2.11-14.8,10.36-14.8,10.36c-0.46-3.66-0.22-8.13,0-9.43
								c3.02-18.38,11.91-25.88,11.91-25.88l-8.65-1.68c-7.52,7.56-10.72,16.49-11.78,26.99c-0.32,3.14-0.26,12.64,1.57,13.85
								c0,0,7.71,4.62,8.88,3.33c5.91-6.49,12.27-13.28,21.71-14.38C76.03,109.13,66.63,105.79,63.86,106.37z"/>
						</g>
						<linearGradient id="SVGID_4_" gradientUnits="userSpaceOnUse" x1="65.7371" y1="107.6811" x2="56.6768" y2="114.2543">
							<stop  offset="0" style="stop-color:#212121"/>
							<stop  offset="1" style="stop-color:#232323;stop-opacity:0"/>
						</linearGradient>
						<path style="fill:url(#SVGID_4_);" d="M64.11,106.32c-6.21,1.12-10.58,5.02-12.54,7.15l8.18,1.82
							c2.52-2.01,5.27-3.68,8.37-4.73l3.04-1.73l-3.32-1.22C65.12,107.09,65.32,106.1,64.11,106.32z"/>
						
							<radialGradient id="SVGID_5_" cx="66.3674" cy="96.4861" r="27.2724" gradientTransform="matrix(1 0 0 0.9695 0 3.7378)" gradientUnits="userSpaceOnUse">
							<stop  offset="0.4169" style="stop-color:#F7D881"/>
							<stop  offset="1" style="stop-color:#9E9E9E"/>
						</radialGradient>
						<path style="fill:url(#SVGID_5_);" d="M50.61,124.29c-0.14,0-0.26-0.02-0.35-0.04c-0.37-0.08-1.03-0.37-1.36-1.39
							c-0.86-2.71-1.85-9.99-0.11-20.04c2.51-14.49,10.07-21.27,10.39-21.55l1.75,0.98c-0.07,0.06-7.77,7.11-10.16,20.9
							c-1.64,9.46-0.8,16.27-0.01,18.96c0.16-0.17,0.33-0.36,0.53-0.57c3.43-3.69,12.55-13.49,21.39-13.49v1.94
							c-7.96,0-16.64,9.34-19.91,12.85c-0.28,0.3-0.52,0.55-0.71,0.76C51.53,124.15,51,124.29,50.61,124.29z"/>
					</g>
					<g>
						<g>
							<path style="fill:#616161;" d="M86.93,106.37c10.11,2.11,14.8,10.36,14.8,10.36c0.46-3.66,0.22-8.13,0-9.43
								c-3.02-18.38-11.91-25.88-11.91-25.88l8.65-1.68c7.52,7.56,10.72,16.49,11.78,26.99c0.32,3.14,0.26,12.64-1.57,13.85
								c0,0-7.71,4.62-8.88,3.33c-5.91-6.49-12.27-13.28-21.71-14.38C74.76,109.13,84.16,105.79,86.93,106.37z"/>
						</g>
						
							<linearGradient id="SVGID_6_" gradientUnits="userSpaceOnUse" x1="115.8157" y1="107.6811" x2="106.7554" y2="114.2543" gradientTransform="matrix(-1 0 0 1 200.8651 0)">
							<stop  offset="0" style="stop-color:#212121"/>
							<stop  offset="1" style="stop-color:#232323;stop-opacity:0"/>
						</linearGradient>
						<path style="fill:url(#SVGID_6_);" d="M86.68,106.32c6.21,1.12,10.58,5.02,12.54,7.15l-8.18,1.82
							c-2.52-2.01-5.27-3.68-8.37-4.73l-3.04-1.73l3.32-1.22C85.67,107.09,85.47,106.1,86.68,106.32z"/>
						
							<radialGradient id="SVGID_7_" cx="116.4461" cy="96.4861" r="27.2724" gradientTransform="matrix(-1 0 0 0.9695 200.8651 3.7378)" gradientUnits="userSpaceOnUse">
							<stop  offset="0.4169" style="stop-color:#F7D881"/>
							<stop  offset="1" style="stop-color:#9E9E9E"/>
						</radialGradient>
						<path style="fill:url(#SVGID_7_);" d="M100.17,124.29c0.14,0,0.26-0.02,0.35-0.04c0.37-0.08,1.03-0.37,1.36-1.39
							c0.86-2.71,1.85-9.99,0.11-20.04c-2.51-14.49-10.07-21.27-10.39-21.55l-1.75,1.05c-0.59-0.62,7.78,7.04,10.17,20.83
							c1.64,9.46,0.8,16.27,0.01,18.96c-0.16-0.17-0.33-0.36-0.53-0.57c-3.43-3.69-12.55-13.49-21.39-13.49v1.94
							c7.96,0,16.64,9.34,19.91,12.85c0.28,0.3,0.52,0.55,0.71,0.76C99.25,124.15,99.78,124.29,100.17,124.29z"/>
					</g>
				</g>
				<g>
					<g>
						<ellipse style="fill:#424242;" cx="75.39" cy="97.4" rx="12.6" ry="2.43"/>
						<path style="fill:#FFE082;" d="M75.39,95.5c7.04,0,11.1,1.18,11.96,1.9c-0.87,0.72-4.92,1.9-11.96,1.9s-11.1-1.18-11.96-1.9
							C64.3,96.68,68.35,95.5,75.39,95.5 M75.39,94.43c-7.26,0-13.14,1.33-13.14,2.97s5.88,2.97,13.14,2.97s13.14-1.33,13.14-2.97
							S82.65,94.43,75.39,94.43L75.39,94.43z"/>
					</g>
					<g>
						<g>
							
								<radialGradient id="SVGID_8_" cx="75.3932" cy="96.5747" r="6.2885" gradientTransform="matrix(1 0 0 2.1007 0 -106.3021)" gradientUnits="userSpaceOnUse">
								<stop  offset="0.2548" style="stop-color:#FF9100"/>
								<stop  offset="0.7141" style="stop-color:#EF6C00"/>
								<stop  offset="1" style="stop-color:#DD2C00"/>
							</radialGradient>
							<path style="fill:url(#SVGID_8_);" d="M82.3,95.94c-0.54-5.45-6.9-15.61-6.9-15.61s-6.36,10.16-6.9,15.61
								c-0.57,5.71,5.09,6.48,6.9,6.48S82.87,101.65,82.3,95.94z"/>
							
								<radialGradient id="SVGID_9_" cx="75.517" cy="97.4099" r="4.8857" gradientTransform="matrix(1 0 0 1.8024 0 -78.1614)" gradientUnits="userSpaceOnUse">
								<stop  offset="0.3977" style="stop-color:#FFEE58"/>
								<stop  offset="0.8231" style="stop-color:#FFB604"/>
								<stop  offset="1" style="stop-color:#FFB604;stop-opacity:0"/>
							</radialGradient>
							<path style="fill:url(#SVGID_9_);" d="M79.73,96.84c-0.45-4.11-4.33-9.69-4.33-9.69s-3.88,5.58-4.33,9.69
								c-0.42,3.77,2.7,4.81,4.33,4.81S80.15,100.61,79.73,96.84z"/>
							
								<radialGradient id="SVGID_10_" cx="75.4357" cy="97.5265" r="2.7903" gradientTransform="matrix(1 0 0 1.7715 0 -75.239)" gradientUnits="userSpaceOnUse">
								<stop  offset="0.4011" style="stop-color:#FFFDE7"/>
								<stop  offset="0.8422" style="stop-color:#FFEE58"/>
								<stop  offset="1" style="stop-color:#FFEE58;stop-opacity:0"/>
							</radialGradient>
							<path style="fill:url(#SVGID_10_);" d="M78.26,97.66c-0.3-2.72-2.87-6.41-2.87-6.41s-2.57,3.7-2.87,6.41
								c-0.28,2.5,1.78,3.18,2.87,3.18C76.48,100.84,78.54,100.15,78.26,97.66z"/>
						</g>
					</g>
					
						<radialGradient id="SVGID_11_" cx="74.947" cy="108.1906" r="14.3175" gradientTransform="matrix(1 0 0 0.8296 0 18.4325)" gradientUnits="userSpaceOnUse">
						<stop  offset="0.1451" style="stop-color:#424242"/>
						<stop  offset="1" style="stop-color:#616161"/>
					</radialGradient>
					<path style="fill:url(#SVGID_11_);" d="M88.53,105.86c0,1.88-0.68,4.56-13.14,4.56s-13.14-2.58-13.14-4.56V97.4
						c0,0,2.23,2.53,12.85,2.53s13.43-2.53,13.43-2.53V105.86z"/>
					<path style="fill:#FFE082;" d="M87.36,97.4c-0.87,0.72-4.92,1.9-11.96,1.9s-11.1-1.18-11.96-1.9c0.14-0.11-1.18-0.13-1.18,0
						c0,1.64,5.88,2.97,13.14,2.97s13.14-1.33,13.14-2.97C88.53,97.27,87.22,97.28,87.36,97.4z"/>
				</g>
			</g>
			<g>
				
					<radialGradient id="SVGID_12_" cx="75.077" cy="68.6173" r="54.7864" gradientTransform="matrix(1 0 0 0.2689 0 50.1656)" gradientUnits="userSpaceOnUse">
					<stop  offset="0.2071" style="stop-color:#424242"/>
					<stop  offset="0.9385" style="stop-color:#616161"/>
				</radialGradient>
				<path style="fill:url(#SVGID_12_);" d="M102.78,77.37c0,1.17-0.73,2.22-1.83,2.61c-3.72,1.29-14.49,3.27-25.69,3.27
					s-21.97-1.98-25.69-3.27c-1.11-0.38-1.83-1.44-1.83-2.61v-7.61h55.05V77.37z"/>
				<g>
					<path style="fill:#FFE082;" d="M49.58,79.91c2.14,0.43,4.26,0.84,6.41,1.1c2.13,0.34,4.27,0.6,6.41,0.77
						c4.28,0.36,8.56,0.6,12.85,0.58c4.29,0.02,8.57-0.22,12.85-0.58c2.14-0.17,4.28-0.44,6.41-0.77c2.15-0.26,4.27-0.67,6.41-1.1
						l0.05,0.14c-4.13,1.39-8.41,2.27-12.71,2.89c-4.31,0.61-8.66,0.9-13.01,0.92c-4.35-0.02-8.7-0.31-13.01-0.92
						c-4.3-0.61-8.58-1.5-12.71-2.89L49.58,79.91z"/>
				</g>
			</g>
		</g>
	</g>
	<g>
		<path style="fill:#E64A19;" d="M75.25,27.6c-43.16,0-43.58,6.1-43.13,10.4l2.98,23.12c1.64,10.64,18.25,13.65,40.14,13.39
			c21.89,0.26,38.5-2.75,40.14-13.39L118.38,38C118.83,33.7,118.41,27.6,75.25,27.6z"/>
		<linearGradient id="SVGID_13_" gradientUnits="userSpaceOnUse" x1="63.4713" y1="50.8568" x2="22.0808" y2="52.4981">
			<stop  offset="0.4914" style="stop-color:#FFE082;stop-opacity:0"/>
			<stop  offset="0.9041" style="stop-color:#FFE082"/>
		</linearGradient>
		<path style="fill:url(#SVGID_13_);" d="M32.12,38l2.98,23.12c1.24,8.05,11.04,11.72,25.21,12.93l-0.93-46.1
			c-2.1,0.1-4.05,0.23-5.89,0.37C31.96,30.06,31.76,34.6,32.12,38z"/>
		
			<linearGradient id="SVGID_14_" gradientUnits="userSpaceOnUse" x1="67.2534" y1="50.8568" x2="25.8628" y2="52.4981" gradientTransform="matrix(-1 0 0 1 154.2847 0)">
			<stop  offset="0.4914" style="stop-color:#FFE082;stop-opacity:0"/>
			<stop  offset="0.9041" style="stop-color:#FFE082"/>
		</linearGradient>
		<path style="fill:url(#SVGID_14_);" d="M118.38,38l-2.98,23.12c-1.24,8.05-11.04,11.72-25.21,12.93l0.93-46.1
			c2.1,0.1,4.05,0.23,5.89,0.37C118.54,30.06,118.74,34.6,118.38,38z"/>
		<ellipse style="fill:#424242;" cx="75.21" cy="36.37" rx="39.59" ry="6.21"/>
		<ellipse style="fill:#FFF9C4;" cx="75.21" cy="37.37" rx="39.07" ry="5.21"/>
	</g>
	<g>
		<linearGradient id="SVGID_15_" gradientUnits="userSpaceOnUse" x1="35.5536" y1="26.874" x2="33.5313" y2="29.8786">
			<stop  offset="0.3332" style="stop-color:#BDBDBD"/>
			<stop  offset="0.892" style="stop-color:#9E9E9E"/>
		</linearGradient>
		<path style="fill:url(#SVGID_15_);" d="M12.09,14.3l39.12,27c1.92,0.23,3.98,0.43,6.16,0.61L13.79,11.83L12.09,14.3z"/>
		<linearGradient id="SVGID_16_" gradientUnits="userSpaceOnUse" x1="90.2694" y1="32.325" x2="92.2229" y2="35.0227">
			<stop  offset="0.4072" style="stop-color:#BDBDBD"/>
			<stop  offset="1" style="stop-color:#9E9E9E"/>
		</linearGradient>
		<path style="fill:url(#SVGID_16_);" d="M105.92,23.66c-0.47-0.68-1.4-0.85-2.09-0.39l-28.06,19.3c1.83,0,3.63-0.03,5.39-0.07
			l24.37-16.76C106.21,25.28,106.39,24.35,105.92,23.66z"/>
		<g>
			<path style="fill:#BF855E;" d="M104.04,21.92l15.78-10.85c1.14-0.78,2.69-0.5,3.48,0.64c0.78,1.14,0.49,2.69-0.64,3.48
				l-15.78,10.85C105.45,26.99,102.38,23.01,104.04,21.92z"/>
		</g>
		<linearGradient id="SVGID_17_" gradientUnits="userSpaceOnUse" x1="80.1506" y1="30.5717" x2="82.3966" y2="32.6774">
			<stop  offset="0.3611" style="stop-color:#BDBDBD"/>
			<stop  offset="1" style="stop-color:#9E9E9E"/>
		</linearGradient>
		<path style="fill:url(#SVGID_17_);" d="M92.38,19.8c-0.61-0.57-1.56-0.53-2.12,0.07L69.16,42.5l4.04,0.06l19.25-20.64
			C93.02,21.32,92.99,20.37,92.38,19.8z"/>
		<g>
			<path style="fill:#BF855E;" d="M90.17,18.51l13.06-14c0.94-1.01,2.52-1.07,3.53-0.12c1.01,0.94,1.06,2.52,0.12,3.53l-13.06,14
				C92.65,23.16,88.79,19.93,90.17,18.51z"/>
		</g>
	</g>
	<g>
		<path style="fill:#BF855E;" d="M27.28,26.01L11.52,15.13c-1.14-0.78-1.42-2.34-0.64-3.48c0.79-1.14,2.34-1.42,3.48-0.64
			l15.76,10.88C31.81,23.12,28.92,27.13,27.28,26.01z"/>
	</g>
</g>
</svg>

<?xml version="1.0" encoding="UTF-8" standalone="no"?>
<!DOCTYPE svg PUBLIC "-//W3C//DTD SVG 1.1//EN" "http://www.w3.org/Graphics/SVG/1.1/DTD/svg11.dtd">
<svg width="100%" height="100%" viewBox="0 0 128 128" version="1.1" xmlns="http://www.w3.org/2000/svg" xmlns:xlink="http://www.w3.org/1999/xlink" xml:space="preserve" xmlns:serif="http://www.serif.com/" style="fill-rule:evenodd;clip-rule:evenodd;stroke-linejoin:round;stroke-miterlimit:2;">
    <path d="M68.19,106.21C68.09,106.26 68,106.32 67.9,106.37C68.11,96.46 71.21,86.54 77.59,79.07C76.42,80.44 69.34,77.67 68.05,79.07C55.67,92.52 58.2,111.62 59.3,117.26C59.48,118.21 60.3,118.9 61.27,118.91C63.13,118.93 66.16,118.91 67.89,118.9C68.64,118.89 69.3,118.39 69.48,117.65C70.57,113.23 72.62,108.3 76.76,106.2C74.51,107.35 70.48,105.04 68.19,106.21Z" style="fill:rgb(75,107,117);fill-rule:nonzero;"/>
    <ellipse cx="75.39" cy="97.4" rx="12.6" ry="2.43" style="fill:rgb(43,59,64);"/>
    <path d="M82.3,95.94C81.76,90.49 75.4,80.33 75.4,80.33C75.4,80.33 69.04,90.49 68.5,95.94C67.93,101.65 73.59,102.42 75.4,102.42C77.21,102.42 82.87,101.65 82.3,95.94Z" style="fill:rgb(255,145,0);fill-rule:nonzero;"/>
    <path d="M102.78,77.37C102.78,78.54 102.05,79.59 100.95,79.98C97.23,81.27 86.46,83.25 75.26,83.25C64.06,83.25 53.29,81.27 49.57,79.98C48.46,79.6 47.74,78.54 47.74,77.37L47.74,69.76L102.79,69.76L102.79,77.37L102.78,77.37Z" style="fill:rgb(101,147,162);fill-rule:nonzero;"/>
    <path d="M88.53,105.86C88.53,107.74 87.85,110.42 75.39,110.42C62.93,110.42 62.25,107.84 62.25,105.86L62.25,97.4C62.25,97.4 64.48,99.93 75.1,99.93C85.72,99.93 88.53,97.4 88.53,97.4L88.53,105.86Z" style="fill:rgb(101,147,162);fill-rule:nonzero;"/>
    <path d="M86.93,106.37C97.04,108.48 101.73,116.73 101.73,116.73C102.19,113.07 101.95,108.6 101.73,107.3C98.71,88.92 89.82,81.42 89.82,81.42L98.47,79.74C105.99,87.3 109.19,96.23 110.25,106.73C110.57,109.87 110.51,119.37 108.68,120.58C108.68,120.58 100.97,125.2 99.8,123.91C93.89,117.42 87.53,110.63 78.09,109.53C74.76,109.13 84.16,105.79 86.93,106.37Z" style="fill:rgb(101,147,162);fill-rule:nonzero;"/>
    <path d="M63.86,106.37C53.75,108.48 49.06,116.73 49.06,116.73C48.6,113.07 48.84,108.6 49.06,107.3C52.08,88.92 60.97,81.42 60.97,81.42L52.32,79.74C44.8,87.3 41.6,96.23 40.54,106.73C40.22,109.87 40.28,119.37 42.11,120.58C42.11,120.58 49.82,125.2 50.99,123.91C56.9,117.42 63.26,110.63 72.7,109.53C76.03,109.13 66.63,105.79 63.86,106.37Z" style="fill:rgb(101,147,162);fill-rule:nonzero;"/>
    <path d="M26.63,37.48C21.93,36.45 16.32,35.83 11.32,35.24C6.5,34.67 4.27,37.21 4.27,41.63C4.27,45.23 5.77,47.8 6.72,49.08C7.15,49.66 7.79,50.04 8.51,50.15C10.86,50.53 15.55,51.01 20.31,51.01C25.98,51.01 32.15,49.35 37.33,48.61C39.21,48.34 39.39,50.63 39.24,48.87C38.74,42.83 31.73,38.6 26.63,37.48Z" style="fill:rgb(230,86,25);fill-rule:nonzero;"/>
    <g>
        <path d="M75.25,27.6C32.09,27.6 31.67,33.7 32.12,38L35.1,61.12C36.74,71.76 53.35,74.77 75.24,74.51C97.13,74.77 113.74,71.76 115.38,61.12L118.38,38C118.83,33.7 118.41,27.6 75.25,27.6Z" style="fill:rgb(230,86,25);fill-rule:nonzero;"/>
        <ellipse cx="75.21" cy="36.37" rx="39.59" ry="6.21" style="fill:rgb(66,66,66);"/>
        <ellipse cx="75.21" cy="37.37" rx="39.07" ry="5.21" style="fill:rgb(255,249,196);"/>
    </g>
    <g>
        <path d="M12.09,14.3L51.21,41.3C53.13,41.53 55.19,41.73 57.37,41.91L13.79,11.83L12.09,14.3Z" style="fill:rgb(158,158,158);fill-rule:nonzero;"/>
        <path d="M105.92,23.66C105.45,22.98 104.52,22.81 103.83,23.27L75.77,42.57C77.6,42.57 79.4,42.54 81.16,42.5L105.53,25.74C106.21,25.28 106.39,24.35 105.92,23.66Z" style="fill:rgb(158,158,158);fill-rule:nonzero;"/>
        <g>
            <path d="M104.04,21.92L119.82,11.07C120.96,10.29 122.51,10.57 123.3,11.71C124.08,12.85 123.79,14.4 122.66,15.19L106.88,26.04C105.45,26.99 102.38,23.01 104.04,21.92Z" style="fill:rgb(191,133,94);fill-rule:nonzero;"/>
        </g>
        <path d="M92.38,19.8C91.77,19.23 90.82,19.27 90.26,19.87L69.16,42.5L73.2,42.56L92.45,21.92C93.02,21.32 92.99,20.37 92.38,19.8Z" style="fill:rgb(158,158,158);fill-rule:nonzero;"/>
        <g>
            <path d="M90.17,18.51L103.23,4.51C104.17,3.5 105.75,3.44 106.76,4.39C107.77,5.33 107.82,6.91 106.88,7.92L93.82,21.92C92.65,23.16 88.79,19.93 90.17,18.51Z" style="fill:rgb(191,133,94);fill-rule:nonzero;"/>
        </g>
    </g>
    <g>
        <path d="M27.28,26.01L11.52,15.13C10.38,14.35 10.1,12.79 10.88,11.65C11.67,10.51 13.22,10.23 14.36,11.01L30.12,21.89C31.81,23.12 28.92,27.13 27.28,26.01Z" style="fill:rgb(191,133,94);fill-rule:nonzero;"/>
    </g>
</svg>
